packages/core/src/svgs/tokens/branded/TRADE.svg

<svg width="24" height="24" viewBox="0 0 24 24" fill="none" xmlns="http://www.w3.org/2000/svg">
<path d="M5.12646 5.28007L5.18797 9.61082C13.9274 5.74705 18.4212 12.1867 19.5761 15.8898L21.7396 16.1521C21.5312 15.2935 21.0938 14.4243 20.9011 14.0967H22C21.7377 13.0001 20.7209 11.7059 20.2453 11.1962L21.174 10.8077C20.5125 9.65665 19.101 8.64551 18.4777 8.28461L19.2711 7.70153C18.1834 6.62386 16.6281 6.09538 15.986 5.96609L16.473 5.37234C15.7664 5.05224 13.655 5.03717 12.6871 5.06981V3.98085C11.4399 4.02039 9.6229 4.86332 8.87037 5.28007L8.79631 4.04297C7.93266 4.43839 6.77529 5.57694 6.30519 6.09664L5.12646 5.28007Z" fill="#8A71EA"/>
<path d="M8.09229 8.07122C8.18203 7.87351 8.05525 7.78375 7.98119 7.76367C9.61679 7.18812 10.655 7.15924 10.9694 7.21698C10.2483 8.46851 8.01823 8.97063 7.83244 8.82815C7.64665 8.68568 7.98119 8.3185 8.09229 8.07122ZM12.7186 8.25951C15.4953 8.37122 17.8183 10.428 18.633 11.4423L19.1257 12.3995C16.408 12.761 14.6863 11.5609 14.1648 10.9157C13.9282 10.6226 14.0367 10.5109 14.1648 10.4751C15.2449 10.1738 16.1148 10.5002 16.4149 10.701C17.4605 11.4573 18.1509 11.733 18.365 11.7756C18.1647 11.6644 17.5891 11.2942 16.8862 10.7004C16.1832 10.1073 15.4082 10.0376 15.1081 10.0772C13.6852 10.2717 12.4294 10.1004 11.9793 9.99118C11.0686 9.70811 9.44867 9.05787 10.2546 8.72209C11.0598 8.38692 12.2328 8.27395 12.7186 8.25951ZM17.8911 13.1609C18.8577 13.5914 19.4546 15.0877 19.6673 15.9488C19.5901 15.9488 18.52 15.984 17.9946 16.0016C16.4193 15.3945 15.3761 13.413 15.2443 13.1609C15.0057 12.7051 15.294 12.606 15.4671 12.6134C16.4902 12.6436 17.5095 12.9907 17.8911 13.1609ZM15.422 15.8659C15.5066 15.9978 15.5343 16.3292 15.5374 16.4786C15.8155 16.2915 16.5022 16.1798 16.8109 16.1477C16.101 15.6111 15.6384 15.4554 15.5368 15.5546C15.4634 15.6029 15.3366 15.7341 15.422 15.8659Z" fill="#8A71EA"/>
<path fill-rule="evenodd" clip-rule="evenodd" d="M2 8.43047L5.78972 12.6783C5.88198 12.77 6.0502 12.9721 5.99245 13.0487C5.93407 13.1253 5.54996 12.9583 5.36544 12.8648C5.40183 13.2884 5.3874 14.2581 5.0378 14.7458C4.68757 15.2334 4.0003 16.3068 3.69966 16.7826C3.66828 16.8346 3.60927 16.9884 3.62811 17.1855C3.63193 17.225 3.63522 17.2739 3.63906 17.3311C3.65917 17.6303 3.69433 18.1532 3.89987 18.7213C4.07349 19.2026 4.31462 19.0974 4.76417 18.9013C4.82005 18.877 4.87916 18.8511 4.94177 18.8249C5.50727 18.587 11.0619 14.9769 11.4008 14.7458C11.7398 14.5142 12.37 13.8143 12.1754 12.8648C11.9332 11.6785 11.2508 11.2353 10.3954 11.2353C9.71121 11.2353 8.72333 11.3597 8.31536 11.4225C7.83773 11.4877 6.6634 11.4664 5.78972 10.8513C4.91667 10.2362 2.90004 8.98092 2 8.43047ZM8.07119 12.7353C8.60093 12.4956 8.97625 13.0247 8.87772 13.0398C8.46473 13.1007 8.07119 13.2268 7.77306 13.5173C7.69147 13.5964 7.56406 12.9645 8.07119 12.7353Z" fill="#8A71EA"/>
<path d="M10.1439 16.2356C10.6071 17.8386 9.9192 19.426 9.5169 20.0191C12.0338 17.7708 13.9763 16.9349 14.6334 16.798C15.7349 12.6944 13.2212 11.0023 12.7781 10.8661C12.4229 10.7569 12.4304 10.9502 12.4787 11.0607C13.5206 14.01 11.3565 15.7391 10.1439 16.2356ZM7.56239 9.47276C6.4025 9.47902 5.84892 9.18842 5.71711 9.04219L5.57275 9.14764C5.96754 9.7646 6.29768 10.1707 6.80483 10.4632C7.38288 10.7958 8.25217 10.6985 8.72228 10.6013C10.5588 10.4067 11.3803 11.04 11.5901 11.0563C11.7576 11.0688 11.7131 10.8881 11.6703 10.7958C10.9047 9.48028 9.01225 9.4646 7.56239 9.47276Z" fill="#8A71EA"/>
</svg>

<svg xmlns="http://www.w3.org/2000/svg" width="24" height="24" fill="none" viewBox="0 0 24 24">
    <path fill="#8A71EA" d="m5.126 5.28.062 4.33c8.74-3.863 13.233 2.577 14.388 6.28l2.164.262c-.209-.859-.646-1.728-.839-2.055H22c-.262-1.097-1.28-2.391-1.755-2.9l.929-.39c-.662-1.15-2.073-2.161-2.696-2.522l.793-.583c-1.088-1.078-2.643-1.607-3.285-1.736l.487-.594c-.707-.32-2.818-.335-3.786-.302V3.98c-1.247.04-3.064.883-3.817 1.3l-.074-1.237c-.863.395-2.02 1.534-2.49 2.054z"/>
    <path fill="#8A71EA" d="M8.092 8.071c.09-.197-.037-.287-.11-.307 1.635-.576 2.673-.605 2.987-.547-.72 1.252-2.95 1.754-3.137 1.611-.185-.142.15-.51.26-.757m4.627.189c2.776.111 5.1 2.168 5.914 3.182l.493.957c-2.718.362-4.44-.838-4.961-1.483-.237-.293-.128-.405 0-.44 1.08-.302 1.95.024 2.25.225 1.046.756 1.736 1.032 1.95 1.075-.2-.112-.776-.482-1.479-1.076-.703-.593-1.478-.662-1.778-.623-1.423.195-2.679.023-3.129-.086-.91-.283-2.53-.933-1.724-1.269s1.978-.448 2.464-.462m5.172 4.9c.967.431 1.564 1.928 1.776 2.789-.077 0-1.147.035-1.672.053-1.576-.607-2.619-2.589-2.75-2.841-.24-.456.049-.555.222-.548 1.023.03 2.042.378 2.424.548m-2.469 2.706c.085.132.112.463.115.613.278-.187.965-.3 1.274-.331-.71-.537-1.173-.693-1.274-.593-.074.048-.2.18-.115.31"/>
    <path fill="#8A71EA" fill-rule="evenodd" d="m2 8.43 3.79 4.248c.092.092.26.294.202.37s-.442-.09-.627-.183c.037.423.022 1.393-.327 1.88-.35.488-1.038 1.562-1.338 2.038a.7.7 0 0 0-.072.402l.011.146c.02.3.055.822.26 1.39.174.482.416.376.865.18l.178-.076c.565-.238 6.12-3.848 6.459-4.08.339-.23.969-.93.774-1.88-.242-1.187-.924-1.63-1.78-1.63-.684 0-1.672.125-2.08.188-.477.065-1.652.043-2.525-.572S2.9 8.981 2 8.431m6.071 4.305c.53-.24.905.29.807.305-.413.06-.807.187-1.105.477-.082.08-.209-.553.298-.782" clip-rule="evenodd"/>
    <path fill="#8A71EA" d="M10.144 16.236c.463 1.603-.225 3.19-.627 3.783 2.517-2.248 4.46-3.084 5.116-3.221 1.102-4.104-1.412-5.796-1.855-5.932-.355-.11-.348.084-.3.195 1.043 2.949-1.121 4.678-2.334 5.175M7.562 9.473c-1.16.006-1.713-.285-1.845-.43l-.144.105c.395.617.725 1.023 1.232 1.315.578.333 1.447.236 1.917.138 1.837-.194 2.658.439 2.868.455.168.013.123-.168.08-.26-.765-1.316-2.658-1.331-4.108-1.323"/>
</svg>
